Sources/FrostedUI/Resources/Icons.xcassets/barChart20.imageset/bar-chart-20.svg

<svg width="20" height="20" viewBox="0 0 20 20" fill="none" xmlns="http://www.w3.org/2000/svg" data-fui-icon="true">
  <path
    d="M3 14C3.41421 14 3.75 14.3358 3.75 14.75V17.25C3.75 17.6642 3.41421 18 3 18C2.58579 18 2.25 17.6642 2.25 17.25V14.75C2.25 14.3358 2.58579 14 3 14ZM6.5 10C6.91421 10 7.25 10.3358 7.25 10.75V17.25C7.25 17.6642 6.91421 18 6.5 18C6.08579 18 5.75 17.6642 5.75 17.25V10.75C5.75 10.3358 6.08579 10 6.5 10ZM10 6C10.4142 6 10.75 6.33579 10.75 6.75V17.25C10.75 17.6642 10.4142 18 10 18C9.58579 18 9.25 17.6642 9.25 17.25V6.75C9.25 6.33579 9.58579 6 10 6ZM13.5 11C13.9142 11 14.25 11.3358 14.25 11.75V17.25C14.25 17.6642 13.9142 18 13.5 18C13.0858 18 12.75 17.6642 12.75 17.25V11.75C12.75 11.3358 13.0858 11 13.5 11ZM17 2C17.4142 2 17.75 2.33579 17.75 2.75V17.25C17.75 17.6642 17.4142 18 17 18C16.5858 18 16.25 17.6642 16.25 17.25V2.75C16.25 2.33579 16.5858 2 17 2Z"
    fill="currentColor"
  />
</svg>

<svg xmlns="http://www.w3.org/2000/svg" width="20" height="20" fill="none" data-fui-icon="true" viewBox="0 0 20 20"><path fill="currentColor" d="M3 14a.75.75 0 0 1 .75.75v2.5a.75.75 0 0 1-1.5 0v-2.5A.75.75 0 0 1 3 14m3.5-4a.75.75 0 0 1 .75.75v6.5a.75.75 0 0 1-1.5 0v-6.5A.75.75 0 0 1 6.5 10M10 6a.75.75 0 0 1 .75.75v10.5a.75.75 0 0 1-1.5 0V6.75A.75.75 0 0 1 10 6m3.5 5a.75.75 0 0 1 .75.75v5.5a.75.75 0 0 1-1.5 0v-5.5a.75.75 0 0 1 .75-.75M17 2a.75.75 0 0 1 .75.75v14.5a.75.75 0 0 1-1.5 0V2.75A.75.75 0 0 1 17 2"/></svg>
